Origami/32x32/apps/stepmania-ssc.svg

<svg width="32" height="32" version="1.1" viewBox="0 0 24 24" xmlns="http://www.w3.org/2000/svg">
 <path d="m5.2499998 2.2498015c-2.0774999 0-3.7499999 1.6725-3.7499999 3.7499998 0 2.0774999 1.6725 3.7499999 3.7499999 3.7499999h4.4472658l-7.0957032 7.0942378c-1.4690142 1.469014-1.4690142 3.835185 0 5.304199 1.4690142 1.469015 3.8351848 1.469015 5.3041993 0l7.0942373-7.095703v4.447266c0 2.0775 1.6725 3.75 3.75 3.75s3.75-1.6725 3.75-3.75v-13.5c0-2.0774998-1.6725-3.7499998-3.75-3.7499998z" style="opacity:.2"/>
 <path transform="scale(.74999997)" d="m7 2c-2.7699999 0-5 2.2300001-5 5s2.2300001 5 5 5h5.929688l-9.460938 9.458984c-1.9586857 1.958686-1.9586857 5.11358 0 7.072266s5.1135799 1.958686 7.072266 0l9.458984-9.460938v5.929688c0 2.77 2.23 5 5 5s5-2.23 5-5v-18c0-2.7699999-2.23-5-5-5h-18z" style="fill:#e7b212"/>
 <path transform="scale(.74999997)" d="m7 2c-2.7699999 0-5 2.2300001-5 5 0 0.16917 0.0091406 0.3352431 0.0253906 0.5 0.2489648-2.5338864 2.3731378-4.5 4.9746094-4.5h18c2.77 0 5 2.2300002 5 5v-1c0-2.7699999-2.23-5-5-5h-18zm4.929688 11l-8.460938 8.458984c-1.1075374 1.107538-1.5648969 2.595216-1.4199219 4.035157 0.1116062-1.106245 0.5690339-2.184269 1.4199219-3.035157l9.460938-9.458984h-1z" style="fill:#ffffff;opacity:.2"/>
</svg>

<svg xmlns="http://www.w3.org/2000/svg" width="32" height="32" version="1.1" viewBox="0 0 24 24">
 <path d="m 5.2499998,2.2498015 c -2.0774999,0 -3.7499999,1.6725 -3.7499999,3.7499998 0,2.0774999 1.6725,3.7499999 3.7499999,3.7499999 H 9.6972656 L 2.6015624,16.844039 c -1.4690142,1.469014 -1.4690142,3.835185 0,5.304199 1.4690142,1.469015 3.8351848,1.469015 5.3041993,0 l 7.0942373,-7.095703 v 4.447266 c 0,2.0775 1.6725,3.75 3.75,3.75 2.0775,0 3.75,-1.6725 3.75,-3.75 V 5.9998013 c 0,-2.0774998 -1.6725,-3.7499998 -3.75,-3.7499998 z" style="opacity:0.2"/>
 <path style="fill:#e7b212" d="M 7 2 C 4.2300001 2 2 4.2300001 2 7 C 2 9.7699999 4.2300001 12 7 12 L 12.929688 12 L 3.46875 21.458984 C 1.5100643 23.41767 1.5100643 26.572564 3.46875 28.53125 C 5.4274357 30.489936 8.5823299 30.489936 10.541016 28.53125 L 20 19.070312 L 20 25 C 20 27.77 22.23 30 25 30 C 27.77 30 30 27.77 30 25 L 30 7 C 30 4.2300001 27.77 2 25 2 L 7 2 z" transform="scale(0.74999997)"/>
 <path style="opacity:0.2;fill:#ffffff" d="M 7 2 C 4.2300001 2 2 4.2300001 2 7 C 2 7.16917 2.0091406 7.3352431 2.0253906 7.5 C 2.2743554 4.9661136 4.3985284 3 7 3 L 25 3 C 27.77 3 30 5.2300002 30 8 L 30 7 C 30 4.2300001 27.77 2 25 2 L 7 2 z M 11.929688 13 L 3.46875 21.458984 C 2.3612126 22.566522 1.9038531 24.0542 2.0488281 25.494141 C 2.1604343 24.387896 2.617862 23.309872 3.46875 22.458984 L 12.929688 13 L 11.929688 13 z" transform="scale(0.74999997)"/>
</svg>
